X:1
T:Faben, 87.87 D
T:John Henry Willcox, 1849
T:Faben, 87.87 D
T:Public Domain
C:John Henry Willcox, 1849
Z:Public Domain
%%score ( 1 2 ) ( 3 4 )
L:1/8
M:3/2
K:Bb
V:1 treble 
V:2 treble 
V:3 bass 
V:4 bass 
V:1
 [DF]2 [DF]2 | [DF]6 [Fd]2 [Ec]2 [Fd]2 | [DB]4 [DF]4 [B,F]2 [B,F]2 | [CE]6 [EG]2 [DF]2 [CE]2 | %4
 [CE]4 [B,D]4 | [A,E]2 [A,E]2 | [B,F]6 [Fd]2 [Ec]2 [Fd]2 | [DB]4 [DF]4 [DB]2 [B,B]2 | %8
 [CA]6 [CG]2 [CF]2 [B,=E]2 | [A,F]8 | [CF]2 [CF]2 | [DG]6 [DG]2 [EA]2 [EA]2 | %12
 [DB]4 [DB]4 [DG]2 [DG]2 | [^CG]6 [CB]2 [CA]2 [CG]2 | G4 ^F4 | [EF]2 [EF]2 | %16
 [DF]6 [Fd]2 [Ec]2 [Dd]2 | [DB]4 [B,F]4 [C^F]2 [CF]2 | [B,G]2 [Ec]2 [DB]4 [CA]4 | [DB]8 |] %20
V:2
 x4 | x12 | x12 | x12 | x8 | x4 | x12 | x12 | x12 | x8 | x4 | x12 | x12 | x12 | D8 | x4 | x12 | %17
 x12 | x12 | x8 |] %20
V:3
 [B,,B,]2 [B,,B,]2 | [B,,B,]6 [B,,F,]2 [B,,G,]2 [B,,A,]2 | [B,,B,]4 [B,,B,]4 [D,B,]2 [D,B,]2 | %3
 (B,4 A,2) [F,A,]2 [F,A,]2 [F,A,]2 | (B,4 F,4) | [C,F,]2 [C,F,]2 | %6
 [D,F,]6 [B,,F,]2 [B,,G,]2 [B,,A,]2 | [B,,B,]4 [B,,B,]4 [G,,B,]2 [G,,G,]2 | %8
 [C,F,]6 [C,B,]2 [C,A,]2 [C,G,]2 | [F,,F,]8 | [F,A,]2 [F,A,]2 | [F,B,]6 [F,B,]2 [F,C]2 [F,C]2 | %12
 [G,B,]4 [G,B,]4 [G,B,]2 [G,B,]2 | [E,B,]6 [E,G,]2 [E,A,]2 [E,B,]2 | (B,4 A,4) | [F,A,]2 [F,A,]2 | %16
 [B,,B,]6 [B,,B,]2 [F,A,]2 [^F,A,]2 | G,4 [D,F,]4 [D,A,]2 [D,A,]2 | [E,G,]2 [C,G,]2 F,4 [F,,F,]4 | %19
 [B,,F,]8 |] %20
V:4
 x4 | x12 | x12 | F,6 x6 | B,,8 | x4 | x12 | x12 | x12 | x8 | x4 | x12 | x12 | x12 | D,8 | x4 | %16
 x12 | x12 | x4 F,4 x4 | x8 |] %20

